src/svg/uf273-calendar-times-o.svg

<!-- Generated by IcoMoon.io -->
<svg version="1.1" xmlns="http://www.w3.org/2000/svg" width="30" height="32" viewBox="0 0 30 32">
<path d="M19.839 24.732l-0.821 0.821c-0.214 0.214-0.571 0.214-0.804 0l-3.357-3.375-3.357 3.375c-0.232 0.214-0.589 0.214-0.804 0l-0.821-0.821c-0.214-0.214-0.214-0.571 0-0.804l3.375-3.357-3.375-3.357c-0.214-0.232-0.214-0.589 0-0.804l0.821-0.821c0.214-0.214 0.571-0.214 0.804 0l3.357 3.357 3.357-3.357c0.232-0.214 0.589-0.214 0.804 0l0.821 0.821c0.214 0.214 0.214 0.571 0 0.804l-3.357 3.357 3.357 3.357c0.214 0.232 0.214 0.589 0 0.804zM2.286 29.714h25.143v-18.286h-25.143v18.286zM9.143 8v-5.143c0-0.321-0.25-0.571-0.571-0.571h-1.143c-0.321 0-0.571 0.25-0.571 0.571v5.143c0 0.321 0.25 0.571 0.571 0.571h1.143c0.321 0 0.571-0.25 0.571-0.571zM22.857 8v-5.143c0-0.321-0.25-0.571-0.571-0.571h-1.143c-0.321 0-0.571 0.25-0.571 0.571v5.143c0 0.321 0.25 0.571 0.571 0.571h1.143c0.321 0 0.571-0.25 0.571-0.571zM29.714 6.857v22.857c0 1.25-1.036 2.286-2.286 2.286h-25.143c-1.25 0-2.286-1.036-2.286-2.286v-22.857c0-1.25 1.036-2.286 2.286-2.286h2.286v-1.714c0-1.571 1.286-2.857 2.857-2.857h1.143c1.571 0 2.857 1.286 2.857 2.857v1.714h6.857v-1.714c0-1.571 1.286-2.857 2.857-2.857h1.143c1.571 0 2.857 1.286 2.857 2.857v1.714h2.286c1.25 0 2.286 1.036 2.286 2.286z"></path>
</svg>

<svg xmlns="http://www.w3.org/2000/svg" width="30" height="32"><path d="M19.839 24.732l-.821.821a.584.584 0 0 1-.804 0l-3.357-3.375-3.357 3.375a.584.584 0 0 1-.804 0l-.821-.821a.584.584 0 0 1 0-.804l3.375-3.357-3.375-3.357a.584.584 0 0 1 0-.804l.821-.821a.584.584 0 0 1 .804 0l3.357 3.357 3.357-3.357a.584.584 0 0 1 .804 0l.821.821a.584.584 0 0 1 0 .804l-3.357 3.357 3.357 3.357a.584.584 0 0 1 0 .804zM2.286 29.714h25.143V11.428H2.286v18.286zM9.143 8V2.857a.564.564 0 0 0-.571-.571H7.429a.564.564 0 0 0-.571.571V8c0 .321.25.571.571.571h1.143c.321 0 .571-.25.571-.571zm13.714 0V2.857a.564.564 0 0 0-.571-.571h-1.143a.564.564 0 0 0-.571.571V8c0 .321.25.571.571.571h1.143c.321 0 .571-.25.571-.571zm6.857-1.143v22.857A2.302 2.302 0 0 1 27.428 32H2.285a2.302 2.302 0 0 1-2.286-2.286V6.857a2.302 2.302 0 0 1 2.286-2.286h2.286V2.857A2.866 2.866 0 0 1 7.428 0h1.143a2.866 2.866 0 0 1 2.857 2.857v1.714h6.857V2.857A2.866 2.866 0 0 1 21.142 0h1.143a2.866 2.866 0 0 1 2.857 2.857v1.714h2.286a2.302 2.302 0 0 1 2.286 2.286z"/></svg>
